X:0125
T:Sweet Mally
N:no relation of "Sweet Molly" (Hopetoun House)
M:2/4
L:1/8
Q:1/2=100
I: :: ::
Z:Jack Campin * www.campin.me.uk * 2009
K:E Minor
Ee(ef)   |e2dB|defd     |eBdB|Beef|e2dB |ABdF|E/E/E E2:|
F/F/F F>E|DEFA|B/B/B B>A|Bdef|dBAF|D>EFA|BdAF|E/E/E E2:|
<end>
<start>
